;FLAVOR:UltiGCode
;TIME:11369
;MATERIAL:11973
;MATERIAL2:0
;NOZZLE_DIAMETER:0.4
;MINX:72.036
;MINY:92.21
;MINZ:0.27
;MAXX:148.468
;MAXY:130.79
;MAXZ:21.67
;Generated with Cura_SteamEngine 5.2.2
M82 ;absolute extrusion mode
G0 F3000 Y50 ;avoid prime blob
G92 E0
G92 E0
G10
;LAYER_COUNT:215
;LAYER:0
M107
G0 F7200 X73.849 Y94.305 Z0.27
;TYPE:SKIRT
G11
G1 F1800 X74.278 Y93.984 E0.05787
G1 X74.75 Y93.73 E0.11575
G1 X75.255 Y93.549 E0.17369
G1 X75.763 Y93.447 E0.22965
G1 X76.728 Y93.326 E0.33469
G1 X77.739 Y93.212 E0.44457
G1 X80.419 Y92.832 E0.7369
G1 X83.689 Y92.271 E1.09522
G1 X84.282 Y92.211 E1.15959
G1 X85.176 Y92.21 E1.25614
G1 X86.647 Y92.231 E1.41503
G1 X89.392 Y92.231 E1.71149
G1 X90.282 Y92.212 E1.80763
G1 X91.106 Y92.21 E1.89662
G1 X92.045 Y92.224 E1.99805
G1 X94.867 Y92.625 E2.30588
G1 X97.591 Y92.935 E2.60198
G1 X100.312 Y93.167 E2.89691
G1 X103.007 Y93.321 E3.18844
G1 X105.783 Y93.4 E3.48837
G1 X107.164 Y93.41 E3.63753
G1 X108.66 Y93.41 E3.79909
G1 X111.44 Y93.371 E4.09936
G1 X114.169 Y93.255 E4.39436
G1 X116.898 Y93.061 E4.68984
G1 X119.567 Y92.797 E4.9795
G1 X122.815 Y92.373 E5.33326
G1 X123.851 Y92.221 E5.44634
G1 X125.009 Y92.21 E5.57141
G1 X126.48 Y92.231 E5.7303
G1 X129.225 Y92.231 E6.02676
G1 X130.115 Y92.212 E6.1229
G1 X130.94 Y92.21 E6.212
G1 X131.879 Y92.225 E6.31342
G1 X134.905 Y92.657 E6.64354
G1 X137.614 Y92.967 E6.93803
G1 X140.336 Y93.199 E7.23307
G1 X143.027 Y93.353 E7.52417
G1 X144.094 Y93.384 E7.63946
G1 X145.012 Y93.423 E7.73869
G1 X145.544 Y93.486 E7.79655
G1 X146.062 Y93.627 E7.85453
G1 X146.553 Y93.843 E7.91246
G1 X147.006 Y94.13 E7.97037
G1 X147.411 Y94.481 E8.02826
G1 X147.76 Y94.888 E8.08616
G1 X148.045 Y95.343 E8.14414
G1 X148.258 Y95.835 E8.20205
G1 X148.397 Y96.353 E8.25997
G1 X148.467 Y97.002 E8.33047
G1 X148.468 Y125.299 E11.38654
G1 X148.459 Y126.026 E11.46506
G1 X148.412 Y126.56 E11.52296
G1 X148.287 Y127.081 E11.58082
G1 X148.085 Y127.578 E11.63876
G1 X147.812 Y128.04 E11.69672
G1 X147.474 Y128.456 E11.75461
G1 X147.077 Y128.817 E11.81256
G1 X146.631 Y129.115 E11.87049
G1 X146.146 Y129.343 E11.92837
G1 X145.632 Y129.497 E11.98632
G1 X144.962 Y129.58 E12.05923
G1 X144.462 Y129.594 E12.11326
G1 X141.711 Y129.714 E12.41065
G1 X138.986 Y129.91 E12.70571
G1 X136.274 Y130.182 E13.00007
G1 X133.584 Y130.529 E13.293
G1 X132.097 Y130.744 E13.45526
G1 X131.585 Y130.789 E13.51077
G1 X130.704 Y130.79 E13.60592
G1 X129.233 Y130.769 E13.76481
G1 X126.488 Y130.769 E14.06127
G1 X125.598 Y130.788 E14.15741
G1 X124.765 Y130.79 E14.24737
G1 X123.826 Y130.776 E14.3488
G1 X121.004 Y130.375 E14.65663
G1 X118.28 Y130.065 E14.95272
G1 X115.559 Y129.833 E15.24766
G1 X112.864 Y129.679 E15.53919
G1 X110.088 Y129.6 E15.83912
G1 X108.707 Y129.59 E15.98827
G1 X107.199 Y129.59 E16.15114
G1 X104.419 Y129.629 E16.45141
G1 X101.69 Y129.745 E16.74641
G1 X98.961 Y129.939 E17.04188
G1 X96.284 Y130.204 E17.33241
G1 X93.537 Y130.556 E17.63151
G1 X92.067 Y130.773 E17.79199
G1 X90.976 Y130.79 E17.90984
G1 X89.399 Y130.769 E18.08017
G1 X86.654 Y130.769 E18.37663
G1 X85.764 Y130.788 E18.47277
G1 X84.944 Y130.79 E18.56133
G1 X84.243 Y130.78 E18.63704
G1 X83.636 Y130.719 E18.70293
G1 X82.972 Y130.596 E18.77586
G1 X80.255 Y130.13 E19.07358
G1 X77.56 Y129.747 E19.36757
G1 X76.014 Y129.552 E19.53586
G1 X75.489 Y129.445 E19.59372
G1 X74.985 Y129.262 E19.65163
G1 X74.514 Y129.005 E19.70958
G1 X74.086 Y128.682 E19.76749
G1 X73.711 Y128.299 E19.82538
G1 X73.159 Y127.489 E19.93124
G1 X72.839 Y126.887 E20.00487
G1 X72.203 Y124.744 E20.2463
G1 X72.06 Y124.088 E20.31881
G1 X72.038 Y122.84 E20.45361
G1 X72.046 Y122.276 E20.51453
G1 X72.226 Y119.087 E20.85949
G1 X72.303 Y116.346 E21.15564
G1 X72.28 Y112.883 E21.52965
G1 X72.259 Y111.375 E21.69253
G1 X72.307 Y107.715 E22.08784
G1 X72.262 Y104.946 E22.38693
G1 X72.143 Y102.275 E22.67569
G1 X72.058 Y100.987 E22.81509
G1 X72.036 Y99.876 E22.9351
G1 X72.046 Y99.234 E23.00445
G1 X72.147 Y98.444 E23.09046
G1 X72.501 Y96.983 E23.25282
G1 X72.733 Y96.102 E23.35121
G1 X72.908 Y95.595 E23.40914
G1 X73.156 Y95.12 E23.46701
G1 X73.472 Y94.687 E23.5249
G1 X73.849 Y94.305 E23.58286
G0 F7200 X74.2 Y94.532
G1 F1800 X74.617 Y94.246 E23.63747
G1 X75.074 Y94.029 E23.69211
G1 X75.625 Y93.868 E23.75411
G1 X76.773 Y93.723 E23.87908
G1 X77.804 Y93.606 E23.99114
G1 X80.477 Y93.227 E24.28271
G1 X83.757 Y92.665 E24.64211
G1 X84.295 Y92.611 E24.70051
G1 X85.171 Y92.61 E24.79512
G1 X86.642 Y92.631 E24.954
G1 X89.401 Y92.631 E25.25197
G1 X90.283 Y92.612 E25.34725
G1 X91.1 Y92.61 E25.43549
G1 X92.015 Y92.624 E25.53432
G1 X94.837 Y93.025 E25.84216
G1 X97.548 Y93.334 E26.13684
G1 X100.256 Y93.564 E26.43036
G1 X103.007 Y93.721 E26.72795
G1 X105.769 Y93.8 E27.02637
G1 X107.161 Y93.81 E27.17671
G1 X108.666 Y93.81 E27.33925
G1 X111.463 Y93.77 E27.64135
G1 X114.18 Y93.655 E27.93505
G1 X116.926 Y93.46 E28.23237
G1 X119.628 Y93.193 E28.52561
G1 X122.847 Y92.773 E28.8762
G1 X123.881 Y92.621 E28.98908
G1 X125.004 Y92.61 E29.11037
G1 X126.475 Y92.631 E29.26925
G1 X129.234 Y92.631 E29.56722
G1 X130.116 Y92.612 E29.6625
G1 X130.933 Y92.61 E29.75074
G1 X131.847 Y92.624 E29.84946
G1 X134.87 Y93.056 E30.17926
G1 X137.572 Y93.365 E30.47298
G1 X140.281 Y93.597 E30.76662
G1 X143.027 Y93.753 E31.06367
G1 X144.077 Y93.784 E31.17712
G1 X144.995 Y93.823 E31.27635
G1 X145.497 Y93.884 E31.33097
G1 X145.983 Y94.024 E31.38559
G1 X146.44 Y94.238 E31.44009
G1 X146.859 Y94.522 E31.49475
G1 X147.227 Y94.868 E31.54931
G1 X147.537 Y95.268 E31.60396
G1 X147.779 Y95.712 E31.65857
G1 X147.949 Y96.188 E31.71316
G1 X148.067 Y96.991 E31.80082
G1 X148.068 Y125.294 E34.85754
G1 X148.059 Y126.021 E34.93606
G1 X148.013 Y126.524 E34.99061
G1 X147.888 Y127.014 E35.04523
G1 X147.687 Y127.478 E35.09984
G1 X147.416 Y127.905 E35.15446
G1 X147.081 Y128.284 E35.20909
G1 X146.691 Y128.605 E35.26364
G1 X146.255 Y128.861 E35.31825
G1 X145.784 Y129.044 E35.37282
G1 X145.194 Y129.173 E35.43805
G1 X144.43 Y129.195 E35.52059
G1 X141.702 Y129.314 E35.8155
G1 X138.951 Y129.512 E36.11337
G1 X136.25 Y129.782 E36.40653
G1 X133.483 Y130.139 E36.70785
G1 X131.758 Y130.389 E36.89609
G1 X130.709 Y130.39 E37.00939
G1 X129.238 Y130.369 E37.16827
G1 X126.479 Y130.369 E37.46624
G1 X125.597 Y130.388 E37.56152
G1 X124.771 Y130.39 E37.65073
G1 X123.856 Y130.376 E37.74956
G1 X121.034 Y129.975 E38.0574
G1 X118.323 Y129.666 E38.35208
G1 X115.615 Y129.436 E38.6456
G1 X112.864 Y129.279 E38.94319
G1 X110.102 Y129.2 E39.24161
G1 X108.71 Y129.19 E39.39195
G1 X107.193 Y129.19 E39.55578
G1 X104.396 Y129.23 E39.85789
G1 X101.679 Y129.345 E40.15159
G1 X98.933 Y129.54 E40.4489
G1 X96.227 Y129.808 E40.74258
G1 X93.477 Y130.16 E41.042
G1 X92.03 Y130.374 E41.19998
G1 X90.875 Y130.39 E41.32473
G1 X89.404 Y130.369 E41.48362
G1 X86.645 Y130.369 E41.78159
G1 X85.763 Y130.388 E41.87687
G1 X84.949 Y130.39 E41.96478
G1 X84.248 Y130.38 E42.04049
G1 X83.709 Y130.326 E42.099
G1 X83.047 Y130.203 E42.17172
G1 X80.307 Y129.733 E42.47196
G1 X77.604 Y129.349 E42.76681
G1 X76.065 Y129.155 E42.93434
G1 X75.57 Y129.052 E42.98895
G1 X75.097 Y128.873 E43.04357
G1 X74.658 Y128.621 E43.09823
G1 X74.265 Y128.304 E43.15277
G1 X73.926 Y127.928 E43.20744
G1 X73.497 Y127.275 E43.29182
G1 X73.209 Y126.73 E43.3584
G1 X72.586 Y124.63 E43.59497
G1 X72.46 Y124.035 E43.66065
G1 X72.438 Y122.846 E43.78909
G1 X72.451 Y122.144 E43.86491
G1 X72.626 Y119.087 E44.19561
G1 X72.703 Y116.356 E44.49068
G1 X72.68 Y112.881 E44.86598
G1 X72.659 Y111.381 E45.028
G1 X72.707 Y107.715 E45.42396
G1 X72.663 Y104.972 E45.72024
G1 X72.541 Y102.233 E46.01635
G1 X72.45 Y100.804 E46.17099
G1 X72.436 Y99.987 E46.25924
G1 X72.446 Y99.24 E46.33993
G1 X72.536 Y98.538 E46.41636
G1 X72.887 Y97.085 E46.5778
G1 X73.119 Y96.204 E46.67619
G1 X73.286 Y95.727 E46.73077
G1 X73.527 Y95.282 E46.78543
G1 X73.834 Y94.88 E46.84006
G1 X74.2 Y94.532 E46.8946
G10
G0 F7200 X80.01 Y97.13
;TYPE:SUPPORT
G11
G1 F1800 X80.01 Y125.87 E49.99852
G1 X77.343 Y125.87 E50.28656
G1 X77.343 Y97.13 E53.39048
G1 X82.142 Y97.13 E53.90877
G1 X82.479 Y96.912 E53.95212
G1 X82.677 Y96.912 E53.9735
G1 X82.677 Y126.088 E57.12451
G1 X84.057 Y126.088 E57.27355
G1 X84.408 Y126.439 E57.32716
G1 X84.408 Y127.07 E57.39531
G1 X85.344 Y127.07 E57.4964
G1 X85.344 Y95.93 E60.85952
G1 X84.407 Y95.93 E60.96071
G1 X84.407 Y96.012 E60.96957
G1 X85.734 Y96.012 E61.11288
G1 X85.734 Y98.679 E61.40092
G1 X76.304 Y98.679 E62.41936
G1 X76.304 Y98.924 E62.44582
G1 X76.018 Y99.308 E62.49753
G1 X75.755 Y99.384 E62.5271
G1 X75.756 Y100.585 E62.6568
G1 X75.97 Y100.642 E62.68072
G1 X76.259 Y101.029 E62.73289
G1 X76.249 Y101.346 E62.76714
G1 X85.734 Y101.346 E63.79152
G1 X85.734 Y102.194 E63.8831
G1 X88.011 Y102.194 E64.12902
G1 X88.011 Y120.806 E66.13912
G1 X90.312 Y120.806 E66.38762
G1 X90.311 Y122.682 E66.59023
G1 X125.567 Y122.682 E70.39788
G1 X125.567 Y125.349 E70.68592
G1 X90.311 Y125.349 E74.49356
G1 X90.313 Y127.07 E74.67943
G1 X90.678 Y127.07 E74.71885
G1 X90.678 Y95.93 E78.08197
G1 X91.7 Y95.93 E78.19235
G10
G0 F7200 X90.312 Y98.679
G11
G1 F1800 X125.567 Y98.679 E81.99989
G1 X125.567 Y101.346 E82.28792
G1 X90.312 Y101.346 E86.09546
G1 X90.312 Y96.012 E86.67154
G1 X91.765 Y96.012 E86.82846
G1 X91.924 Y96.216 E86.85639
G1 X93.345 Y97.139 E87.03939
G1 X93.345 Y125.87 E90.14234
G1 X96.012 Y125.87 E90.43038
G1 X96.012 Y97.13 E93.5343
G1 X98.679 Y97.13 E93.82233
G1 X98.679 Y125.87 E96.92625
G1 X101.346 Y125.87 E97.21429
G1 X101.346 Y97.13 E100.31821
G1 X104.013 Y97.13 E100.60625
G1 X104.013 Y125.87 E103.71017
G1 X106.68 Y125.87 E103.9982
G1 X106.68 Y97.13 E107.10212
G1 X109.347 Y97.13 E107.39016
G1 X109.347 Y125.87 E110.49408
G1 X112.014 Y125.87 E110.78211
G1 X112.014 Y97.13 E113.88603
G1 X114.681 Y97.13 E114.17407
G1 X114.681 Y125.87 E117.27799
G1 X117.348 Y125.87 E117.56603
G1 X117.348 Y97.13 E120.66995
G1 X120.015 Y97.13 E120.95798
G1 X120.015 Y125.87 E124.0619
G1 X122.414 Y125.87 E124.32099
G1 X123.888 Y126.83 E124.51097
G1 X124.159 Y127.07 E124.55007
G1 X125.349 Y127.07 E124.67859
G1 X125.349 Y95.93 E128.04171
G1 X125.567 Y95.93 E128.06525
G1 X125.567 Y96.012 E128.07411
G1 X124.065 Y96.012 E128.23632
G1 X123.887 Y96.17 E128.26203
G1 X122.682 Y96.954 E128.41729
G1 X122.682 Y126.044 E131.55901
G10
G0 F7200 X126.004 Y127.794
G0 X129.711 Y127.794
G0 X130.683 Y127.07
G11
G1 F1800 X130.683 Y95.93 E134.92213
G1 X131.472 Y95.93 E135.00734
G1 X131.472 Y96.012 E135.0162
G1 X130.146 Y96.012 E135.1594
G1 X130.146 Y98.679 E135.44744
G1 X144.748 Y98.679 E137.02446
G1 X144.748 Y97.13 E137.19175
G1 X144.018 Y97.13 E137.27059
G1 X144.018 Y125.87 E140.37451
G1 X141.351 Y125.87 E140.66254
G1 X141.351 Y97.13 E143.76646
G1 X138.684 Y97.13 E144.0545
G1 X138.684 Y125.87 E147.15842
G1 X136.017 Y125.87 E147.44646
G1 X136.017 Y97.13 E150.55038
G1 X133.907 Y97.13 E150.77826
G1 X133.57 Y96.912 E150.8216
G1 X133.35 Y96.912 E150.84536
G1 X133.35 Y126.088 E153.99637
G1 X131.824 Y126.088 E154.16118
G1 X131.473 Y126.439 E154.21479
G1 X131.473 Y127.07 E154.28294
G1 X130.147 Y127.07 E154.42615
G1 X130.145 Y125.349 E154.61201
G1 X144.748 Y125.349 E156.18914
G1 X144.748 Y122.682 E156.47717
G1 X130.145 Y122.682 E158.0543
G1 X130.146 Y120.806 E158.25691
G1 X128.016 Y120.806 E158.48695
G1 X128.016 Y102.194 E160.49704
G1 X130.147 Y102.194 E160.72719
G1 X130.146 Y101.346 E160.81877
G1 X144.748 Y101.346 E162.39579
G1 X144.748 Y104.013 E162.68383
G1 X76.159 Y104.013 E170.09144
G1 X76.159 Y106.68 E170.37947
G1 X144.748 Y106.68 E177.78709
G1 X144.748 Y109.347 E178.07512
G1 X76.137 Y109.347 E185.48511
G1 X76.014 Y109.736 E185.52917
G1 X75.97 Y111.444 E185.7137
G1 X75.986 Y112.014 E185.77528
G1 X144.748 Y112.014 E193.20158
G1 X144.748 Y114.681 E193.48961
G1 X76.16 Y114.681 E200.89712
G1 X76.16 Y117.348 E201.18515
G1 X144.748 Y117.348 E208.59266
G1 X144.748 Y120.015 E208.88069
G1 X76.195 Y120.015 E216.28442
G1 X76.259 Y121.974 E216.4961
G1 X75.971 Y122.361 E216.5482
G1 X75.756 Y122.418 E216.57222
G1 X75.757 Y123.605 E216.70042
G1 X75.971 Y123.667 E216.72448
G1 X76.261 Y124.046 E216.77602
G1 X76.303 Y125.349 E216.91682
G1 X85.733 Y125.349 E217.93526
G1 X85.733 Y122.682 E218.2233
G1 X75.755 Y122.682 E219.30092
G10
;MESH:Duncan3DCar.stl
G0 F7200 X86.158 Y122.681
G0 X87.053 Y122.126
;TYPE:WALL-OUTER
G11
G1 F1800 X87.054 Y126.91 E219.86926
G1 X88.993 Y126.91 E220.09961
G1 X88.992 Y122.126 E220.66795
G1 X87.053 Y122.126 E220.8983
G0 F7200 X87.053 Y122.326
G0 X87.453 Y122.526
;TYPE:WALL-INNER
G1 F1800 X87.454 Y126.51 E221.30706
G1 X88.593 Y126.51 E221.42392
G1 X88.592 Y122.526 E221.83268
G1 X87.453 Y122.526 E221.94954
G0 F7200 X87.828 Y122.901
;TYPE:SKIN
G1 F1850.8 X87.829 Y126.135 E222.24071
G1 X88.218 Y126.135 E222.27573
G1 X88.217 Y122.901 E222.56689
G1 X87.828 Y122.901 E222.60191
G10
G0 F7200 X87.553 Y122.901
G0 X87.323 Y121.23
G0 X87.323 Y101.77
G0 X87.053 Y96.09
;TYPE:WALL-OUTER
G11
G1 F1800 X87.054 Y100.874 E223.17025
G1 X88.993 Y100.874 E223.40061
G1 X88.992 Y96.09 E223.96894
G1 X87.053 Y96.09 E224.1993
G0 F7200 X87.053 Y96.29
G0 X87.453 Y96.49
;TYPE:WALL-INNER
G1 F1800 X87.454 Y100.474 E224.60806
G1 X88.593 Y100.474 E224.72492
G1 X88.592 Y96.49 E225.13368
G1 X87.453 Y96.49 E225.25054
G0 F7200 X87.828 Y96.865
;TYPE:SKIN
G1 F1850.8 X87.829 Y100.099 E225.5417
G1 X88.218 Y100.099 E225.57672
G1 X88.217 Y96.865 E225.86788
G1 X87.828 Y96.865 E225.90291
G10
G0 F7200 X87.553 Y96.865
G0 X88.792 Y96.368
G0 X89.888 Y96.367
G0 X125.991 Y96.368
G0 X126.887 Y96.09
;TYPE:WALL-OUTER
G11
G1 F1800 X126.887 Y100.874 E226.47124
G1 X128.827 Y100.874 E226.70172
G1 X128.826 Y96.09 E227.27006
G1 X126.887 Y96.09 E227.50041
G0 F7200 X126.887 Y96.29
G0 X127.287 Y96.49
;TYPE:WALL-INNER
G1 F1800 X127.287 Y100.474 E227.90917
G1 X128.427 Y100.474 E228.02613
G1 X128.426 Y96.49 E228.43489
G1 X127.287 Y96.49 E228.55175
G0 F7200 X127.662 Y96.865
;TYPE:SKIN
G1 F1850.8 X127.662 Y100.099 E228.84291
G1 X128.052 Y100.099 E228.87803
G1 X128.051 Y96.865 E229.16919
G1 X127.662 Y96.865 E229.20421
G10
G0 F7200 X127.387 Y96.865
G0 X127.157 Y100.654
G0 X127.157 Y101.77
G0 X127.157 Y121.23
G0 X126.887 Y122.126
;TYPE:WALL-OUTER
G11
G1 F1800 X126.888 Y126.91 E229.77255
G1 X128.827 Y126.91 E230.0029
G1 X128.826 Y122.126 E230.57124
G1 X126.887 Y122.126 E230.80159
G0 F7200 X126.887 Y122.326
G0 X127.287 Y122.526
;TYPE:WALL-INNER
G1 F1800 X127.288 Y126.51 E231.21035
G1 X128.427 Y126.51 E231.32721
G1 X128.426 Y122.526 E231.73597
G1 X127.287 Y122.526 E231.85283
G0 F7200 X127.662 Y122.901
;TYPE:SKIN
G1 F1850.8 X127.663 Y126.135 E232.144
G1 X128.052 Y126.135 E232.17902
G1 X128.051 Y122.901 E232.47018
G1 X127.662 Y122.901 E232.5052
G10
;MESH:NONMESH
G0 F600 X127.662 Y122.901 Z0.37
G0 F7200 X127.387 Y122.901
G0 X127.088 Y125.819
G0 X125.992 Y125.82
G0 X89.877 Y127.794
G0 X86.17 Y127.794
G0 X77.343 Y125.83
;TIME_ELAPSED:80.557744
;LAYER:1
M106 S255
;TYPE:SUPPORT
G11
G1 F1800 X77.343 Y97.17 E233.6516
G1 X76.344 Y97.17 E233.69156
G1 X76.344 Y98.937 E233.76224
G1 X76.042 Y99.342 E233.78245
G1 X75.795 Y99.414 E233.79274
G1 X75.796 Y100.555 E233.83838
G1 X75.993 Y100.608 E233.84654
G1 X76.299 Y101.017 E233.86697
G1 X76.199 Y104.192 E233.99404
G1 X76.199 Y109.282 E234.19764
G1 X76.054 Y109.741 E234.21689
G1 X76.01 Y111.447 E234.28515
G1 X76.063 Y113.294 E234.35906
G1 X76.2 Y113.717 E234.37685
G1 X76.2 Y118.869 E234.58293
G1 X76.299 Y121.991 E234.70787
G1 X75.995 Y122.399 E234.72822
G1 X75.796 Y122.451 E234.73645
G1 X75.797 Y123.575 E234.78141
G1 X75.995 Y123.634 E234.78968
G1 X76.301 Y124.032 E234.80976
G1 X76.35 Y125.508 E234.86883
G1 X76.612 Y125.83 E234.88543
G1 X80.01 Y125.83 E235.02135
G1 X80.01 Y97.17 E236.16775
G1 X82.155 Y97.17 E236.25355
G1 X82.492 Y96.952 E236.26961
G1 X82.677 Y96.952 E236.27701
G1 X82.677 Y126.048 E237.44085
G1 X84.073 Y126.048 E237.49669
G1 X84.448 Y126.423 E237.5179
G1 X84.448 Y127.03 E237.54218
G1 X85.344 Y127.03 E237.57802
G1 X85.344 Y95.97 E238.82042
G1 X85.692 Y95.97 E238.83434
G1 X85.693 Y101.314 E239.0481
G1 X85.743 Y101.314 E239.0501
G1 X85.743 Y101.514 E239.0581
G1 X86.576 Y101.514 E239.09142
G1 X86.576 Y102.314 E239.12342
G1 X88.011 Y102.314 E239.18082
G1 X88.011 Y120.686 E239.9157
G1 X89.47 Y120.686 E239.97406
G1 X89.47 Y121.486 E240.00606
G1 X90.305 Y121.486 E240.03946
