;FLAVOR:UltiGCode
;TIME:11549
;MATERIAL:12547
;MATERIAL2:0
;NOZZLE_DIAMETER:0.4
;MINX:67.835
;MINY:88.09
;MINZ:0.27
;MAXX:152.668
;MAXY:134.91
;MAXZ:21.67
;Generated with Cura_SteamEngine 5.2.2
M82 ;absolute extrusion mode
G0 F3000 Y50 ;avoid prime blob
G92 E0
G92 E0
G10
;LAYER_COUNT:215
;LAYER:0
M107
G0 F7200 X71.695 Y90.646 Z0.27
;TYPE:SKIRT
G11
G1 F1800 X72.361 Y90.223 E0.08521
G1 X73.067 Y89.869 E0.17051
G1 X73.805 Y89.588 E0.25579
G1 X74.568 Y89.384 E0.34109
G1 X75.348 Y89.257 E0.42644
G1 X76.205 Y89.21 E0.51913
G1 X78.853 Y89.21 E0.80512
G1 X79.642 Y89.25 E0.89044
G1 X80.422 Y89.369 E0.97565
G1 X81.187 Y89.567 E1.061
G1 X81.913 Y89.837 E1.14465
G1 X82.722 Y89.274 E1.2511
G1 X83.412 Y88.89 E1.33638
G1 X84.138 Y88.578 E1.42172
G1 X84.891 Y88.341 E1.50698
G1 X85.664 Y88.181 E1.59223
G1 X86.547 Y88.09 E1.6881
G1 X89.192 Y88.09 E1.97376
G1 X89.981 Y88.13 E2.05909
G1 X90.761 Y88.249 E2.1443
G1 X91.526 Y88.447 E2.22964
G1 X92.266 Y88.721 E2.31486
G1 X92.975 Y89.069 E2.40016
G1 X93.646 Y89.487 E2.48554
G1 X94.118 Y89.852 E2.54998
G1 X94.476 Y89.698 E2.59207
G1 X95.229 Y89.461 E2.67733
G1 X96.003 Y89.301 E2.76269
G1 X96.885 Y89.21 E2.85845
G1 X118.687 Y89.21 E5.21307
G1 X119.476 Y89.25 E5.29839
G1 X120.256 Y89.369 E5.3836
G1 X121.021 Y89.567 E5.46894
G1 X121.747 Y89.837 E5.5526
G1 X122.557 Y89.273 E5.6592
G1 X123.248 Y88.889 E5.74457
G1 X123.973 Y88.577 E5.82982
G1 X124.726 Y88.34 E5.91507
G1 X125.5 Y88.181 E6.00041
G1 X126.382 Y88.09 E6.09617
G1 X129.026 Y88.09 E6.38172
G1 X129.815 Y88.13 E6.46705
G1 X130.595 Y88.249 E6.55226
G1 X131.36 Y88.447 E6.6376
G1 X132.1 Y88.721 E6.72283
G1 X132.809 Y89.069 E6.80812
G1 X133.48 Y89.487 E6.8935
G1 X133.952 Y89.852 E6.95794
G1 X134.31 Y89.698 E7.00003
G1 X135.063 Y89.461 E7.08529
G1 X135.837 Y89.301 E7.17065
G1 X136.719 Y89.21 E7.26641
G1 X144.868 Y89.21 E8.1465
G1 X145.657 Y89.25 E8.23182
G1 X146.437 Y89.369 E8.31704
G1 X147.202 Y89.567 E8.40238
G1 X147.942 Y89.841 E8.4876
G1 X148.651 Y90.189 E8.5729
G1 X149.322 Y90.607 E8.65828
G1 X149.946 Y91.09 E8.7435
G1 X150.519 Y91.633 E8.82876
G1 X151.034 Y92.232 E8.91408
G1 X151.485 Y92.88 E8.99934
G1 X151.869 Y93.571 E9.08472
G1 X152.181 Y94.296 E9.16996
G1 X152.418 Y95.049 E9.25522
G1 X152.577 Y95.823 E9.34056
G1 X152.668 Y96.705 E9.43632
G1 X152.668 Y125.99 E12.5991
G1 X152.628 Y126.779 E12.68442
G1 X152.509 Y127.559 E12.76963
G1 X152.311 Y128.324 E12.85498
G1 X152.037 Y129.064 E12.9402
G1 X151.689 Y129.773 E13.0255
G1 X151.271 Y130.444 E13.11088
G1 X150.788 Y131.068 E13.1961
G1 X150.245 Y131.641 E13.28135
G1 X149.646 Y132.156 E13.36667
G1 X148.998 Y132.607 E13.45194
G1 X148.307 Y132.991 E13.53731
G1 X147.582 Y133.303 E13.62256
G1 X146.829 Y133.54 E13.70781
G1 X146.055 Y133.699 E13.79315
G1 X145.173 Y133.79 E13.88891
G1 X137.027 Y133.79 E14.76868
G1 X136.238 Y133.75 E14.854
G1 X135.458 Y133.631 E14.93922
G1 X134.693 Y133.433 E15.02456
G1 X133.967 Y133.163 E15.10821
G1 X133.158 Y133.726 E15.21466
G1 X132.468 Y134.11 E15.29994
G1 X131.742 Y134.422 E15.38528
G1 X130.989 Y134.659 E15.47054
G1 X130.216 Y134.819 E15.5558
G1 X129.333 Y134.91 E15.65166
G1 X126.688 Y134.91 E15.93732
G1 X125.899 Y134.87 E16.02265
G1 X125.119 Y134.751 E16.10786
G1 X124.354 Y134.553 E16.1932
G1 X123.614 Y134.279 E16.27843
G1 X122.905 Y133.931 E16.36372
G1 X122.234 Y133.513 E16.4491
G1 X121.762 Y133.148 E16.51354
G1 X121.404 Y133.302 E16.55563
G1 X120.651 Y133.539 E16.64089
G1 X119.877 Y133.699 E16.72625
G1 X118.995 Y133.79 E16.82201
G1 X97.193 Y133.79 E19.17663
G1 X96.404 Y133.75 E19.26195
G1 X95.624 Y133.631 E19.34716
G1 X94.859 Y133.433 E19.43251
G1 X94.133 Y133.163 E19.51616
G1 X93.324 Y133.726 E19.62261
G1 X92.634 Y134.11 E19.70789
G1 X91.908 Y134.422 E19.79323
G1 X91.155 Y134.659 E19.87849
G1 X90.382 Y134.819 E19.96374
G1 X89.499 Y134.91 E20.05961
G1 X86.854 Y134.91 E20.34527
G1 X86.065 Y134.87 E20.43059
G1 X85.285 Y134.751 E20.51581
G1 X84.52 Y134.553 E20.60115
G1 X83.78 Y134.279 E20.68637
G1 X83.071 Y133.931 E20.77167
G1 X82.4 Y133.513 E20.85705
G1 X81.928 Y133.148 E20.92149
G1 X81.57 Y133.302 E20.96358
G1 X80.817 Y133.539 E21.04884
G1 X80.043 Y133.699 E21.1342
G1 X79.161 Y133.79 E21.22996
G1 X76.46 Y133.79 E21.52167
G1 X75.671 Y133.75 E21.60699
G1 X74.891 Y133.631 E21.6922
G1 X74.126 Y133.433 E21.77754
G1 X73.386 Y133.159 E21.86277
G1 X72.677 Y132.811 E21.94807
G1 X72.006 Y132.393 E22.03344
G1 X71.382 Y131.91 E22.11867
G1 X70.809 Y131.367 E22.20392
G1 X70.294 Y130.768 E22.28924
G1 X69.843 Y130.12 E22.3745
G1 X69.349 Y129.314 E22.4766
G1 X69.006 Y128.603 E22.56186
G1 X68.736 Y127.861 E22.64713
G1 X68.543 Y127.096 E22.73234
G1 X68.503 Y126.825 E22.76193
G1 X68.367 Y126.522 E22.7978
G1 X68.119 Y125.773 E22.88301
G1 X67.947 Y125.002 E22.96832
G1 X67.855 Y124.218 E23.05358
G1 X67.837 Y123.701 E23.10945
G1 X67.836 Y122.333 E23.25719
G1 X67.875 Y121.544 E23.34251
G1 X67.994 Y120.763 E23.42783
G1 X68.192 Y119.999 E23.51306
G1 X68.266 Y119.799 E23.5361
G1 X68.24 Y118.869 E23.63658
G1 X68.24 Y114.725 E24.08413
G1 X68.15 Y114.164 E24.14549
G1 X68.107 Y113.543 E24.21272
G1 X68.047 Y111.46 E24.43778
G1 X68.098 Y109.512 E24.64823
G1 X68.158 Y108.725 E24.73347
G1 X68.239 Y108.275 E24.78286
G1 X68.239 Y104.186 E25.22447
G1 X68.266 Y103.204 E25.33056
G1 X68.177 Y102.958 E25.35882
G1 X67.985 Y102.192 E25.4441
G1 X67.871 Y101.41 E25.52945
G1 X67.836 Y100.682 E25.60817
G1 X67.835 Y99.3 E25.75742
G1 X67.874 Y98.511 E25.84274
G1 X67.993 Y97.73 E25.92806
G1 X68.191 Y96.966 E26.0133
G1 X68.451 Y96.259 E26.09465
G1 X68.486 Y95.891 E26.13458
G1 X68.638 Y95.116 E26.21987
G1 X68.869 Y94.361 E26.30514
G1 X69.174 Y93.633 E26.39039
G1 X69.552 Y92.939 E26.47574
G1 X69.997 Y92.287 E26.56099
G1 X70.507 Y91.684 E26.64628
G1 X71.074 Y91.135 E26.73152
G1 X71.695 Y90.646 E26.81689
G0 F7200 X72.074 Y90.87
G1 F1800 X72.734 Y90.475 E26.89996
G1 X73.431 Y90.15 E26.98301
G1 X74.158 Y89.899 E27.06608
G1 X74.907 Y89.725 E27.14912
G1 X75.67 Y89.629 E27.23218
G1 X76.205 Y89.61 E27.29
G1 X78.853 Y89.61 E27.57598
G1 X79.621 Y89.65 E27.65904
G1 X80.381 Y89.769 E27.74212
G1 X81.124 Y89.967 E27.82516
G1 X82.009 Y90.304 E27.92744
G1 X82.463 Y89.933 E27.99076
G1 X83.105 Y89.509 E28.07385
G1 X83.787 Y89.155 E28.15684
G1 X84.503 Y88.873 E28.23995
G1 X85.244 Y88.667 E28.32301
G1 X86.003 Y88.539 E28.40614
G1 X86.853 Y88.49 E28.49809
G1 X89.192 Y88.49 E28.7507
G1 X89.96 Y88.53 E28.83376
G1 X90.72 Y88.649 E28.91684
G1 X91.463 Y88.847 E28.99988
G1 X92.182 Y89.121 E29.08298
G1 X92.868 Y89.468 E29.16601
G1 X93.515 Y89.884 E29.24908
G1 X94.043 Y90.308 E29.32222
G1 X94.842 Y89.993 E29.41497
G1 X95.583 Y89.787 E29.49804
G1 X96.341 Y89.659 E29.58106
G1 X97.192 Y89.61 E29.67312
G1 X118.687 Y89.61 E31.99458
G1 X119.455 Y89.65 E32.07764
G1 X120.215 Y89.769 E32.16072
G1 X120.958 Y89.967 E32.24376
G1 X121.843 Y90.304 E32.34604
G1 X122.298 Y89.932 E32.40951
G1 X122.94 Y89.509 E32.49254
G1 X123.623 Y89.154 E32.57568
G1 X124.338 Y88.873 E32.65864
G1 X125.08 Y88.667 E32.74181
G1 X125.838 Y88.539 E32.82483
G1 X126.687 Y88.49 E32.91668
G1 X129.026 Y88.49 E33.16929
G1 X129.794 Y88.53 E33.25235
G1 X130.554 Y88.649 E33.33543
G1 X131.297 Y88.847 E33.41847
G1 X132.016 Y89.121 E33.50157
G1 X132.702 Y89.468 E33.5846
G1 X133.349 Y89.884 E33.66767
G1 X133.877 Y90.308 E33.74081
G1 X134.676 Y89.993 E33.83356
G1 X135.417 Y89.787 E33.91663
G1 X136.175 Y89.659 E33.99965
G1 X137.026 Y89.61 E34.09171
G1 X144.868 Y89.61 E34.93864
G1 X145.636 Y89.65 E35.0217
G1 X146.396 Y89.769 E35.10478
G1 X147.139 Y89.967 E35.18783
G1 X147.858 Y90.241 E35.27093
G1 X148.544 Y90.588 E35.35395
G1 X149.191 Y91.004 E35.43703
G1 X149.791 Y91.485 E35.52008
G1 X150.338 Y92.026 E35.60317
G1 X150.826 Y92.621 E35.68628
G1 X151.249 Y93.263 E35.76931
G1 X151.604 Y93.946 E35.85244
G1 X151.885 Y94.661 E35.93541
G1 X152.091 Y95.403 E36.01858
G1 X152.219 Y96.161 E36.1016
G1 X152.268 Y97.01 E36.19345
G1 X152.268 Y125.99 E39.32329
G1 X152.228 Y126.758 E39.40634
G1 X152.109 Y127.518 E39.48942
G1 X151.911 Y128.261 E39.57247
G1 X151.637 Y128.98 E39.65557
G1 X151.29 Y129.666 E39.73859
G1 X150.874 Y130.313 E39.82167
G1 X150.393 Y130.913 E39.90472
G1 X149.852 Y131.46 E39.98781
G1 X149.257 Y131.948 E40.07092
G1 X148.615 Y132.371 E40.15395
G1 X147.932 Y132.726 E40.23708
G1 X147.217 Y133.007 E40.32005
G1 X146.475 Y133.213 E40.40322
G1 X145.717 Y133.341 E40.48624
G1 X144.868 Y133.39 E40.57809
G1 X137.027 Y133.39 E41.42491
G1 X136.259 Y133.35 E41.50797
G1 X135.499 Y133.231 E41.59105
G1 X134.756 Y133.033 E41.6741
G1 X133.871 Y132.696 E41.77637
G1 X133.417 Y133.067 E41.83969
G1 X132.775 Y133.491 E41.92278
G1 X132.093 Y133.845 E42.00577
G1 X131.377 Y134.127 E42.08888
G1 X130.636 Y134.333 E42.17194
G1 X129.877 Y134.461 E42.25507
G1 X129.027 Y134.51 E42.34703
G1 X126.688 Y134.51 E42.59964
G1 X125.92 Y134.47 E42.68269
G1 X125.16 Y134.351 E42.76577
G1 X124.417 Y134.153 E42.84882
G1 X123.698 Y133.879 E42.93192
G1 X123.012 Y133.532 E43.01495
G1 X122.365 Y133.116 E43.09802
G1 X121.837 Y132.692 E43.17115
G1 X121.038 Y133.007 E43.26391
G1 X120.297 Y133.213 E43.34697
G1 X119.539 Y133.341 E43.42999
G1 X118.688 Y133.39 E43.52206
G1 X97.193 Y133.39 E45.84352
G1 X96.425 Y133.35 E45.92657
G1 X95.665 Y133.231 E46.00965
G1 X94.922 Y133.033 E46.0927
G1 X94.037 Y132.696 E46.19497
G1 X93.583 Y133.067 E46.25829
G1 X92.941 Y133.491 E46.34138
G1 X92.259 Y133.845 E46.42437
G1 X91.543 Y134.127 E46.50748
G1 X90.802 Y134.333 E46.59054
G1 X90.043 Y134.461 E46.67367
G1 X89.193 Y134.51 E46.76563
G1 X86.854 Y134.51 E47.01824
G1 X86.086 Y134.47 E47.1013
G1 X85.326 Y134.351 E47.18438
G1 X84.583 Y134.153 E47.26742
G1 X83.864 Y133.879 E47.35052
G1 X83.178 Y133.532 E47.43355
G1 X82.531 Y133.116 E47.51662
G1 X82.003 Y132.692 E47.58975
G1 X81.204 Y133.007 E47.68251
G1 X80.463 Y133.213 E47.76557
G1 X79.705 Y133.341 E47.8486
G1 X78.854 Y133.39 E47.94066
G1 X76.46 Y133.39 E48.19921
G1 X75.692 Y133.35 E48.28226
G1 X74.932 Y133.231 E48.36534
G1 X74.189 Y133.033 E48.44839
G1 X73.47 Y132.759 E48.53149
G1 X72.784 Y132.412 E48.61452
G1 X72.137 Y131.996 E48.69759
G1 X71.537 Y131.515 E48.78064
G1 X70.99 Y130.974 E48.86373
G1 X70.502 Y130.379 E48.94684
G1 X70.082 Y129.744 E49.02906
G1 X69.681 Y129.087 E49.11219
G1 X69.351 Y128.392 E49.19528
G1 X69.095 Y127.667 E49.27832
G1 X68.916 Y126.919 E49.36139
G1 X68.895 Y126.726 E49.38235
G1 X68.677 Y126.209 E49.44295
G1 X68.454 Y125.473 E49.52601
G1 X68.308 Y124.718 E49.60906
G1 X68.237 Y123.7 E49.71927
G1 X68.236 Y122.332 E49.86701
G1 X68.275 Y121.564 E49.95006
G1 X68.394 Y120.804 E50.03314
G1 X68.592 Y120.061 E50.11619
G1 X68.668 Y119.861 E50.13929
G1 X68.64 Y118.869 E50.24647
G1 X68.64 Y114.7 E50.69672
G1 X68.543 Y114.081 E50.76439
G1 X68.507 Y113.532 E50.82381
G1 X68.447 Y111.46 E51.04768
G1 X68.498 Y109.523 E51.25695
G1 X68.558 Y108.756 E51.34004
G1 X68.639 Y108.315 E51.38846
G1 X68.639 Y104.186 E51.8344
G1 X68.668 Y103.142 E51.94719
G1 X68.504 Y102.649 E52.0033
G1 X68.338 Y101.898 E52.08637
G1 X68.236 Y101.015 E52.18237
G1 X68.235 Y99.299 E52.3677
G1 X68.274 Y98.531 E52.45075
G1 X68.393 Y97.771 E52.53383
G1 X68.591 Y97.028 E52.61687
G1 X68.843 Y96.364 E52.69357
G1 X68.884 Y95.929 E52.74076
G1 X69.036 Y95.175 E52.82383
G1 X69.265 Y94.44 E52.90698
G1 X69.57 Y93.734 E52.99003
G1 X69.946 Y93.063 E53.0731
G1 X70.389 Y92.435 E53.15611
G1 X70.895 Y91.856 E53.23915
G1 X71.459 Y91.332 E53.3223
G1 X72.074 Y90.87 E53.40537
G0 F7200 X72.452 Y91.101
G1 F1800 X73.104 Y90.734 E53.48617
G1 X73.791 Y90.439 E53.56692
G1 X74.506 Y90.219 E53.64771
G1 X75.241 Y90.077 E53.72856
G1 X76.205 Y90.01 E53.83293
G1 X78.853 Y90.01 E54.11891
G1 X79.6 Y90.05 E54.1997
G1 X80.338 Y90.169 E54.28043
G1 X81.06 Y90.367 E54.36129
G1 X82.063 Y90.761 E54.47767
G1 X82.85 Y90.147 E54.58547
G1 X83.486 Y89.753 E54.66628
G1 X84.16 Y89.429 E54.74704
G1 X84.865 Y89.178 E54.82786
G1 X85.592 Y89.004 E54.9086
G1 X86.334 Y88.909 E54.98939
G1 X86.853 Y88.89 E55.04548
G1 X89.192 Y88.89 E55.29809
G1 X89.939 Y88.93 E55.37888
G1 X90.677 Y89.049 E55.45961
G1 X91.399 Y89.247 E55.54047
G1 X92.095 Y89.52 E55.62121
G1 X92.758 Y89.867 E55.70203
G1 X93.381 Y90.282 E55.78288
G1 X93.988 Y90.795 E55.86871
G1 X94.499 Y90.549 E55.92996
G1 X95.204 Y90.298 E56.01078
G1 X95.931 Y90.125 E56.09149
G1 X96.673 Y90.029 E56.17229
G1 X97.192 Y90.01 E56.22838
G1 X118.687 Y90.01 E58.54984
G1 X119.434 Y90.05 E58.63063
G1 X120.172 Y90.169 E58.71137
G1 X120.894 Y90.367 E58.79222
G1 X121.897 Y90.761 E58.9086
G1 X122.685 Y90.147 E59.01649
G1 X123.321 Y89.752 E59.09735
G1 X123.995 Y89.428 E59.17812
G1 X124.7 Y89.178 E59.2589
G1 X125.428 Y89.004 E59.33974
G1 X126.17 Y88.909 E59.42053
G1 X126.687 Y88.89 E59.4764
G1 X129.026 Y88.89 E59.72902
G1 X129.773 Y88.93 E59.80981
G1 X130.511 Y89.049 E59.89054
G1 X131.233 Y89.247 E59.9714
G1 X131.929 Y89.52 E60.05214
G1 X132.592 Y89.867 E60.13296
G1 X133.215 Y90.282 E60.2138
G1 X133.822 Y90.795 E60.29963
G1 X134.333 Y90.549 E60.36088
G1 X135.038 Y90.298 E60.44171
G1 X135.765 Y90.125 E60.52242
G1 X136.507 Y90.029 E60.60322
G1 X137.026 Y90.01 E60.65931
G1 X144.868 Y90.01 E61.50624
G1 X145.615 Y90.05 E61.58704
G1 X146.353 Y90.169 E61.66777
G1 X147.075 Y90.367 E61.74862
G1 X147.771 Y90.64 E61.82937
G1 X148.434 Y90.987 E61.91019
G1 X149.057 Y91.402 E61.99103
G1 X149.631 Y91.881 E62.07177
G1 X150.152 Y92.418 E62.15258
G1 X150.611 Y93.008 E62.23331
G1 X151.006 Y93.644 E62.31417
G1 X151.33 Y94.318 E62.39493
G1 X151.58 Y95.023 E62.47572
G1 X151.754 Y95.751 E62.55656
G1 X151.849 Y96.493 E62.63735
G1 X151.868 Y97.01 E62.69322
G1 X151.868 Y125.99 E65.82306
G1 X151.828 Y126.737 E65.90385
G1 X151.709 Y127.475 E65.98459
G1 X151.511 Y128.197 E66.06544
G1 X151.238 Y128.893 E66.14619
G1 X150.891 Y129.556 E66.227
G1 X150.476 Y130.179 E66.30785
G1 X149.997 Y130.753 E66.38859
G1 X149.46 Y131.274 E66.4694
G1 X148.87 Y131.733 E66.55013
G1 X148.234 Y132.128 E66.63099
G1 X147.56 Y132.452 E66.71175
G1 X146.855 Y132.702 E66.79254
G1 X146.127 Y132.876 E66.87338
G1 X145.385 Y132.971 E66.95417
G1 X144.868 Y132.99 E67.01004
G1 X137.027 Y132.99 E67.85687
G1 X136.28 Y132.95 E67.93766
G1 X135.542 Y132.831 E68.01839
G1 X134.82 Y132.633 E68.09925
G1 X133.817 Y132.239 E68.21563
G1 X133.03 Y132.853 E68.32343
G1 X132.394 Y133.247 E68.40423
G1 X131.72 Y133.571 E68.485
G1 X131.015 Y133.822 E68.56582
G1 X130.288 Y133.996 E68.64656
G1 X129.546 Y134.091 E68.72735
G1 X129.027 Y134.11 E68.78344
G1 X126.688 Y134.11 E69.03605
G1 X125.941 Y134.07 E69.11684
G1 X125.203 Y133.951 E69.19757
G1 X124.481 Y133.753 E69.27843
G1 X123.785 Y133.48 E69.35917
G1 X123.122 Y133.133 E69.43999
G1 X122.499 Y132.718 E69.52083
G1 X121.892 Y132.205 E69.60667
G1 X121.381 Y132.451 E69.66792
G1 X120.676 Y132.702 E69.74874
G1 X119.949 Y132.875 E69.82945
G1 X119.207 Y132.971 E69.91025
G1 X118.688 Y132.99 E69.96634
G1 X97.193 Y132.99 E72.2878
G1 X96.446 Y132.95 E72.36859
G1 X95.708 Y132.831 E72.44933
G1 X94.986 Y132.633 E72.53018
G1 X93.983 Y132.239 E72.64656
G1 X93.196 Y132.853 E72.75437
G1 X92.56 Y133.247 E72.83517
G1 X91.886 Y133.571 E72.91593
G1 X91.181 Y133.822 E72.99675
G1 X90.454 Y133.996 E73.07749
G1 X89.712 Y134.091 E73.15828
G1 X89.193 Y134.11 E73.21437
G1 X86.854 Y134.11 E73.46698
G1 X86.107 Y134.07 E73.54777
G1 X85.369 Y133.951 E73.6285
G1 X84.647 Y133.753 E73.70936
G1 X83.951 Y133.48 E73.7901
G1 X83.288 Y133.133 E73.87092
G1 X82.665 Y132.718 E73.95177
G1 X82.058 Y132.205 E74.0376
G1 X81.547 Y132.451 E74.09885
G1 X80.842 Y132.702 E74.17967
G1 X80.115 Y132.875 E74.26038
G1 X79.373 Y132.971 E74.34118
G1 X78.854 Y132.99 E74.39727
G1 X76.46 Y132.99 E74.65582
G1 X75.713 Y132.95 E74.73662
G1 X74.975 Y132.831 E74.81735
G1 X74.253 Y132.633 E74.8982
G1 X73.557 Y132.36 E74.97895
G1 X72.894 Y132.013 E75.05977
G1 X72.271 Y131.598 E75.14061
G1 X71.697 Y131.119 E75.22135
G1 X71.176 Y130.582 E75.30216
G1 X70.717 Y129.992 E75.38289
G1 X70.4 Y129.501 E75.44601
G1 X70.014 Y128.861 E75.52673
G1 X69.698 Y128.183 E75.60752
G1 X69.456 Y127.475 E75.68832
G1 X69.291 Y126.745 E75.76915
G1 X69.278 Y126.619 E75.78283
G1 X68.993 Y125.898 E75.86656
G1 X68.796 Y125.177 E75.94729
G1 X68.677 Y124.438 E76.02813
G1 X68.637 Y123.7 E76.10795
G1 X68.636 Y122.332 E76.25569
G1 X68.675 Y121.585 E76.33648
